germany/municipalities/07133062.svg

<?xml version="1.0" encoding="UTF-8" standalone="no"?>
<!-- Created with Inkscape (http://www.inkscape.org/) -->

<svg
   xmlns:dc="http://purl.org/dc/elements/1.1/"
   xmlns:cc="http://creativecommons.org/ns#"
   xmlns:rdf="http://www.w3.org/1999/02/22-rdf-syntax-ns#"
   xmlns:svg="http://www.w3.org/2000/svg"
   xmlns="http://www.w3.org/2000/svg"
   xmlns:sodipodi="http://sodipodi.sourceforge.net/DTD/sodipodi-0.dtd"
   xmlns:inkscape="http://www.inkscape.org/namespaces/inkscape"
   width="185.16087mm"
   height="209.34384mm"
   viewBox="0 0 656.08183 741.76951"
   id="svg2"
   version="1.1"
   inkscape:version="0.91 r13725"
   sodipodi:docname="DEU Martinstein COA.svg">
  <defs
     id="defs4">
    <inkscape:path-effect
       effect="spiro"
       id="path-effect4914"
       is_visible="true" />
    <inkscape:path-effect
       effect="spiro"
       id="path-effect4676"
       is_visible="true" />
    <inkscape:path-effect
       effect="spiro"
       id="path-effect4535"
       is_visible="true" />
    <inkscape:path-effect
       effect="spiro"
       id="path-effect4535-3"
       is_visible="true" />
    <inkscape:path-effect
       effect="spiro"
       id="path-effect4676-9"
       is_visible="true" />
    <inkscape:path-effect
       effect="spiro"
       id="path-effect4914-9"
       is_visible="true" />
  </defs>
  <sodipodi:namedview
     id="base"
     pagecolor="#ffffff"
     bordercolor="#666666"
     borderopacity="1.0"
     inkscape:pageopacity="0.0"
     inkscape:pageshadow="2"
     inkscape:zoom="0.72798892"
     inkscape:cx="328.04093"
     inkscape:cy="370.88475"
     inkscape:document-units="px"
     inkscape:current-layer="layer1"
     showgrid="false"
     inkscape:window-width="1366"
     inkscape:window-height="745"
     inkscape:window-x="-8"
     inkscape:window-y="-8"
     inkscape:window-maximized="1"
     fit-margin-top="0"
     fit-margin-left="0"
     fit-margin-right="0"
     fit-margin-bottom="0"
     inkscape:snap-midpoints="true"
     inkscape:snap-smooth-nodes="true"
     inkscape:object-nodes="true"
     inkscape:object-paths="false"
     inkscape:snap-nodes="true" />
  <metadata
     id="metadata7">
    <rdf:RDF>
      <cc:Work
         rdf:about="">
        <dc:format>image/svg+xml</dc:format>
        <dc:type
           rdf:resource="http://purl.org/dc/dcmitype/StillImage" />
        <dc:title></dc:title>
      </cc:Work>
    </rdf:RDF>
  </metadata>
  <g
     inkscape:label="Ebene 1"
     inkscape:groupmode="layer"
     id="layer1"
     transform="translate(-2.5840469,-14.43181)">
    <path
       style="fill:#ffffff;fill-rule:evenodd;stroke:none;stroke-width:10.79621696;stroke-opacity:1"
       inkscape:connector-curvature="0"
       d="m 653.22524,19.82992 -3.27235,416.74113 C 642.81208,611.86994 501.72463,750.7051 330.62497,750.80323 159.67921,750.58827 18.53899,611.7031 11.29706,436.57105 L 8.0247095,19.82992 l 322.5925505,0 z"
       id="path10563-0-6-7-5-7"
       sodipodi:nodetypes="ccccccc" />
    <rect
       style="fill:#ffd700;fill-opacity:1;stroke:#000000;stroke-width:4.23381329;stroke-linecap:round;stroke-linejoin:round;stroke-miterlimit:4;stroke-dasharray:none;stroke-opacity:1"
       id="rect4560-21-2-5-2"
       width="52.536263"
       height="17.111599"
       x="-89.590355"
       y="-485.38947"
       ry="8.5557995"
       transform="matrix(-0.38586465,0.9225554,-0.9225554,-0.38586465,0,0)" />
    <path
       style="fill:#ff0000;stroke:#000000;stroke-opacity:1;stroke-width:8;stroke-miterlimit:4;stroke-dasharray:none;stroke-linejoin:round;fill-opacity:1"
       d="M 54.134766 223.03906 L 54.134766 283.25977 L 7.6230469 283.25977 L 8.7128906 422.13867 C 15.954821 597.27072 157.09526 736.15613 328.04102 736.37109 C 499.14068 736.27296 640.22833 597.43756 647.36914 422.13867 L 648.45898 283.25977 L 601.94727 283.25977 L 601.94727 223.03906 L 513.89648 223.03906 L 513.89648 283.25977 L 448.69336 283.25977 L 448.69336 223.03906 L 360.64258 223.03906 L 360.64258 283.25977 L 295.43945 283.25977 L 295.43945 223.03906 L 207.38867 223.03906 L 207.38867 283.25977 L 142.18555 283.25977 L 142.18555 223.03906 L 54.134766 223.03906 z "
       transform="translate(2.5840469,14.43181)"
       id="rect4393" />
    <path
       style="fill:#ffd700;fill-rule:evenodd;stroke:#000000;stroke-width:5;stroke-linecap:butt;stroke-linejoin:round;stroke-miterlimit:4;stroke-dasharray:none;stroke-opacity:1;fill-opacity:1"
       d="m 291.38678,342.1779 c 9.08854,8.61868 15.97065,19.54783 19.81446,31.46875 1.93415,5.99847 3.10832,12.24016 3.48828,18.53125 -6.29111,-0.37996 -12.53279,-1.55412 -18.53125,-3.48828 -11.92092,-3.8438 -22.85007,-10.72591 -31.46875,-19.81445 l 0,39.23828 0,39.23828 c 8.61868,-9.08854 19.54783,-15.97065 31.46875,-19.81445 5.99846,-1.93416 12.24014,-3.10833 18.53125,-3.48828 -0.37996,6.29111 -1.55413,12.53279 -3.48828,18.53125 -3.8438,11.92093 -10.72592,22.85007 -19.81446,31.46875 l 39.23828,0 39.23828,0 c -9.08854,-8.61868 -15.97064,-19.54782 -19.81445,-31.46875 -1.93415,-5.99846 -3.10832,-12.24014 -3.48828,-18.53125 6.29111,0.37995 12.53278,1.55412 18.53125,3.48828 11.92092,3.8438 22.85007,10.72591 31.46875,19.81445 l 0,-39.23828 0,-39.23828 c -8.61868,9.08854 -19.54783,15.97065 -31.46875,19.81445 -5.99847,1.93416 -12.24014,3.10832 -18.53125,3.48828 0.37996,-6.2911 1.55413,-12.53278 3.48828,-18.53125 3.8438,-11.92092 10.72591,-22.85007 19.81445,-31.46875 l -39.23828,0 -39.23828,0 z"
       id="path4912"
       inkscape:connector-curvature="0" />
    <path
       style="fill:none;fill-rule:evenodd;stroke:#000000;stroke-width:10.79621696;stroke-opacity:1"
       inkscape:connector-curvature="0"
       d="M 653.22524,19.829918 649.95289,436.57105 C 642.81208,611.86994 501.72463,750.7051 330.62497,750.80323 159.67921,750.58827 18.538989,611.7031 11.297059,436.57105 l -3.27235,-416.741132 322.592551,0 z"
       id="path10563-0-6-7-5"
       sodipodi:nodetypes="ccccccc" />
    <path
       style="fill:#ff0000;fill-opacity:1;stroke:#000000;stroke-width:8;stroke-linejoin:round;stroke-miterlimit:4;stroke-dasharray:none;stroke-opacity:1"
       d="M 37.806641 208.16992 L 37.806641 233.82617 L 158.51172 233.82617 L 158.51172 208.16992 L 37.806641 208.16992 z M 191.06055 208.16992 L 191.06055 233.82617 L 311.76758 233.82617 L 311.76758 208.16992 L 191.06055 208.16992 z M 344.31445 208.16992 L 344.31445 233.82617 L 465.02148 233.82617 L 465.02148 208.16992 L 344.31445 208.16992 z M 497.56836 208.16992 L 497.56836 233.82617 L 618.27539 233.82617 L 618.27539 208.16992 L 497.56836 208.16992 z "
       transform="translate(2.5840469,14.43181)"
       id="rect4413" />
    <path
       style="fill:none;fill-rule:evenodd;stroke:#000000;stroke-width:5;stroke-linecap:round;stroke-linejoin:miter;stroke-miterlimit:4;stroke-dasharray:none;stroke-opacity:1"
       d="m 363.2265,262.2535 88.0513,0"
       id="path4415"
       inkscape:connector-curvature="0" />
    <path
       style="fill:none;fill-rule:evenodd;stroke:#000000;stroke-width:5;stroke-linecap:round;stroke-linejoin:miter;stroke-miterlimit:4;stroke-dasharray:none;stroke-opacity:1"
       d="m 209.97218,262.2535 88.0513,0"
       id="path4415-9"
       inkscape:connector-curvature="0" />
    <path
       style="fill:none;fill-rule:evenodd;stroke:#000000;stroke-width:5;stroke-linecap:round;stroke-linejoin:miter;stroke-miterlimit:4;stroke-dasharray:none;stroke-opacity:1"
       d="m 56.71784,262.2535 88.0513,0"
       id="path4415-5"
       inkscape:connector-curvature="0" />
    <path
       style="fill:none;fill-rule:evenodd;stroke:#000000;stroke-width:5;stroke-linecap:round;stroke-linejoin:miter;stroke-miterlimit:4;stroke-dasharray:none;stroke-opacity:1"
       d="m 516.48082,262.2535 88.0513,0"
       id="path4415-1"
       inkscape:connector-curvature="0" />
    <rect
       style="fill:#ffd700;fill-opacity:1;stroke:#000000;stroke-width:5;stroke-linecap:round;stroke-linejoin:round;stroke-miterlimit:4;stroke-dasharray:none;stroke-opacity:1"
       id="rect4672"
       width="55.600647"
       height="18.675026"
       x="97.774643"
       y="-610.32617"
       rx="4.6840701"
       ry="7.7307401"
       transform="matrix(0,1,-1,0,0,0)" />
    <path
       inkscape:connector-curvature="0"
       style="fill:#0099ff;fill-opacity:1;fill-rule:evenodd;stroke:#000000;stroke-width:5;stroke-linecap:round;stroke-linejoin:round;stroke-miterlimit:4;stroke-dasharray:none;stroke-opacity:1"
       d="m 462.62291,98.4109 c -26.59975,0.4666 -53.19744,1.032 -79.79297,1.6973 -101.06434,2.5278 -202.09299,6.4903 -303.04492,11.8847 -5.88223,0.1109 -11.73417,1.5739 -16.97656,4.2442 -4.51762,2.301 -8.58018,5.4929 -11.88477,9.3379 3.30459,3.8449 7.36715,7.0367 11.88477,9.3378 5.2424,2.6702 11.09433,4.1333 16.97656,4.2442 100.95193,5.3944 201.98058,9.355 303.04492,11.8828 26.59553,0.6652 53.19321,1.2326 79.79297,1.6992 l 0,-27.164 0,-27.1641 z"
       id="path4533" />
    <path
       style="fill:#ffd700;fill-opacity:1;fill-rule:evenodd;stroke:#000000;stroke-width:3;stroke-linecap:round;stroke-linejoin:round;stroke-miterlimit:4;stroke-dasharray:none;stroke-opacity:1"
       d="m 50.92369,125.575 349.73286,0"
       id="path4556"
       inkscape:connector-curvature="0" />
    <path
       style="fill:none;fill-opacity:1;fill-rule:evenodd;stroke:#000000;stroke-width:3;stroke-linecap:round;stroke-linejoin:round;stroke-miterlimit:4;stroke-dasharray:none;stroke-opacity:1"
       d="m 462.62291,98.4109 -61.96636,27.1641 61.96636,27.164"
       id="path4558"
       inkscape:connector-curvature="0" />
    <rect
       style="fill:#ffd700;fill-opacity:1;stroke:#000000;stroke-width:4.23381329;stroke-linecap:round;stroke-linejoin:round;stroke-miterlimit:4;stroke-dasharray:none;stroke-opacity:1"
       id="rect4560"
       width="52.536263"
       height="17.111599"
       x="-120.12991"
       y="-558.40588"
       ry="8.5557995"
       transform="matrix(-0.38586465,0.9225554,-0.9225554,-0.38586465,0,0)" />
    <rect
       style="fill:#ffd700;fill-opacity:1;stroke:#000000;stroke-width:4.23381329;stroke-linecap:round;stroke-linejoin:round;stroke-miterlimit:4;stroke-dasharray:none;stroke-opacity:1"
       id="rect4560-2"
       width="52.536263"
       height="17.111599"
       x="-127.76479"
       y="-576.65997"
       ry="8.5557995"
       transform="matrix(-0.38586465,0.9225554,-0.9225554,-0.38586465,0,0)" />
    <rect
       style="fill:#ffd700;fill-opacity:1;stroke:#000000;stroke-width:4.23381329;stroke-linecap:round;stroke-linejoin:round;stroke-miterlimit:4;stroke-dasharray:none;stroke-opacity:1"
       id="rect4560-21"
       width="52.536263"
       height="17.111599"
       x="-112.49502"
       y="-540.15179"
       ry="8.5557995"
       transform="matrix(-0.38586465,0.9225554,-0.9225554,-0.38586465,0,0)" />
    <rect
       style="fill:#ffd700;fill-opacity:1;stroke:#000000;stroke-width:4.23381329;stroke-linecap:round;stroke-linejoin:round;stroke-miterlimit:4;stroke-dasharray:none;stroke-opacity:1"
       id="rect4560-21-0"
       width="52.536263"
       height="17.111599"
       x="-104.86013"
       y="-521.89771"
       ry="8.5557995"
       transform="matrix(-0.38586465,0.9225554,-0.9225554,-0.38586465,0,0)" />
    <rect
       style="fill:#ffd700;fill-opacity:1;stroke:#000000;stroke-width:4.23381329;stroke-linecap:round;stroke-linejoin:round;stroke-miterlimit:4;stroke-dasharray:none;stroke-opacity:1"
       id="rect4560-21-2"
       width="52.536263"
       height="17.111599"
       x="-97.225243"
       y="-503.64359"
       ry="8.5557995"
       transform="matrix(-0.38586465,0.9225554,-0.9225554,-0.38586465,0,0)" />
    <rect
       style="fill:#ffd700;fill-opacity:1;stroke:#000000;stroke-width:4.23381329;stroke-linecap:round;stroke-linejoin:round;stroke-miterlimit:4;stroke-dasharray:none;stroke-opacity:1"
       id="rect4560-2-9"
       width="52.536263"
       height="17.111599"
       x="-135.39967"
       y="-594.91406"
       ry="8.5557995"
       transform="matrix(-0.38586465,0.9225554,-0.9225554,-0.38586465,0,0)" />
    <rect
       style="fill:#ffd700;fill-opacity:1;stroke:#000000;stroke-width:4.23381329;stroke-linecap:round;stroke-linejoin:round;stroke-miterlimit:4;stroke-dasharray:none;stroke-opacity:1"
       id="rect4560-21-2-5"
       width="52.536263"
       height="17.111599"
       x="-97.225243"
       y="-503.64359"
       ry="8.5557995"
       transform="matrix(-0.38586465,0.9225554,-0.9225554,-0.38586465,0,0)" />
    <rect
       style="fill:#ffd700;fill-opacity:1;stroke:#000000;stroke-width:4.76059294;stroke-linecap:round;stroke-linejoin:round;stroke-miterlimit:4;stroke-dasharray:none;stroke-opacity:1"
       id="rect4670"
       width="73.241791"
       height="17.641136"
       x="88.954086"
       y="-601.95721"
       ry="7.7307358"
       rx="4.6840672"
       transform="matrix(0,1,-1,0,0,0)" />
    <path
       style="fill:#ffd700;fill-opacity:1;fill-rule:evenodd;stroke:#000000;stroke-width:5;stroke-linecap:round;stroke-linejoin:round;stroke-miterlimit:4;stroke-dasharray:none;stroke-opacity:1"
       d="m 472.48815,79.7078 c -0.036,-5.5567 -0.59712,-11.1019 -2.66797,-16.2207 -1.38057,-3.4125 -3.43898,-6.5858 -6.19922,-9.0215 -2.76024,-2.4356 -6.2443,-4.1039 -9.91016,-4.4394 -4.22359,-0.3866 -8.54944,1.0418 -11.83594,3.7227 -3.28649,2.6808 -5.53158,6.5586 -6.41406,10.707 -0.76163,3.5803 -0.51129,7.4367 1.09766,10.7246 0.80447,1.6439 1.94128,3.1303 3.35156,4.2969 1.41028,1.1665 3.0948,2.0083 4.88672,2.3808 3.25137,0.676 6.80113,-0.2843 9.26953,-2.5058 2.46841,-2.2216 3.79583,-5.6507 3.46484,-8.9551 2.32975,4.8584 3.36465,10.3314 2.97071,15.7051 -0.68012,9.2772 -5.45133,17.725 -10.61133,25.4648 -3.20318,4.8047 -6.60158,9.4801 -10.18555,14.0078 3.58397,4.5277 6.98237,9.2013 10.18555,14.0059 5.16,7.7398 9.93122,16.1875 10.61133,25.4648 0.39394,5.3737 -0.64097,10.8467 -2.97071,15.7051 0.33099,-3.3044 -0.99644,-6.7335 -3.46484,-8.9551 -2.46841,-2.2215 -6.01816,-3.1799 -9.26953,-2.5039 -1.79191,0.3726 -3.47644,1.2124 -4.88672,2.3789 -1.41028,1.1666 -2.54709,2.6549 -3.35156,4.2989 -1.60896,3.2879 -1.8593,7.1422 -1.09766,10.7226 0.88248,4.1484 3.12756,8.0261 6.41406,10.707 3.28649,2.6809 7.61234,4.1113 11.83594,3.7247 3.66586,-0.3355 7.14992,-2.0059 9.91016,-4.4415 2.76024,-2.4357 4.81865,-5.6089 6.19922,-9.0214 2.76114,-6.825 2.84015,-14.4084 2.5664,-21.7657 -0.50359,-13.5346 -2.06734,-27.0288 -4.66992,-40.3203 2.60258,-13.2915 4.16633,-26.7877 4.66992,-40.3222 0.0684,-1.8394 0.11355,-3.6927 0.10157,-5.545 z"
       id="path4674"
       inkscape:connector-curvature="0" />
    <circle
       style="fill:#0099ff;fill-opacity:1;stroke:#000000;stroke-width:5;stroke-linecap:round;stroke-linejoin:round;stroke-miterlimit:4;stroke-dasharray:none;stroke-opacity:1"
       id="path4807-1-1"
       cx="330.62506"
       cy="592.76288"
       r="119.02016" />
    <path
       style="fill:#ffd700;fill-opacity:1;stroke:#000000;stroke-width:5;stroke-linecap:round;stroke-linejoin:round;stroke-miterlimit:4;stroke-dasharray:none;stroke-opacity:1"
       d="M 328.04102 452.29688 A 126.0336 126.0336 0 0 0 202.00781 578.33008 A 126.0336 126.0336 0 0 0 328.04102 704.36523 A 126.0336 126.0336 0 0 0 454.07422 578.33008 A 126.0336 126.0336 0 0 0 328.04102 452.29688 z M 310.79883 472.14648 L 310.79883 576.49414 A 183.22614 58.737572 0 0 1 221.25195 565.61719 A 107.62332 107.62332 0 0 1 310.79883 472.14648 z M 345.2832 472.22656 A 107.62332 107.62332 0 0 1 434.78125 565.66016 A 183.22614 58.737572 0 0 1 345.2832 576.46094 L 345.2832 472.22656 z M 433.42969 600.0625 A 107.62332 107.62332 0 0 1 328.04102 685.95508 A 107.62332 107.62332 0 0 1 222.76172 600.08594 A 183.22614 58.737572 0 0 0 328.03906 610.85156 A 183.22614 58.737572 0 0 0 433.42969 600.0625 z "
       transform="translate(2.5840469,14.43181)"
       id="path4807-0" />
  </g>
</svg>

<svg xmlns="http://www.w3.org/2000/svg" width="699.821" height="791.221" viewBox="0 0 656.082 741.77"><g transform="translate(-2.584 -14.432)"><path style="fill:#fff;fill-rule:evenodd;stroke:none;stroke-width:10.79621696;stroke-opacity:1" d="m653.225 19.83-3.272 416.741c-7.14 175.299-148.228 314.134-319.328 314.232-170.946-.215-312.086-139.1-319.328-314.232L8.025 19.83h322.592z"/><rect style="fill:gold;fill-opacity:1;stroke:#000;stroke-width:4.23381329;stroke-linecap:round;stroke-linejoin:round;stroke-miterlimit:4;stroke-dasharray:none;stroke-opacity:1" width="52.536" height="17.112" x="-89.59" y="-485.389" ry="8.556" transform="rotate(112.697)"/><path style="fill:red;stroke:#000;stroke-opacity:1;stroke-width:8;stroke-miterlimit:4;stroke-dasharray:none;stroke-linejoin:round;fill-opacity:1" d="M54.135 223.04v60.22H7.623l1.09 138.879C15.955 597.27 157.095 736.156 328.04 736.37c171.1-.098 312.187-138.933 319.328-314.232l1.09-138.88h-46.512v-60.22h-88.05v60.22h-65.204v-60.22h-88.05v60.22h-65.204v-60.22h-88.05v60.22h-65.203v-60.22H54.135z" transform="translate(2.584 14.432)"/><path style="fill:gold;fill-rule:evenodd;stroke:#000;stroke-width:5;stroke-linecap:butt;stroke-linejoin:round;stroke-miterlimit:4;stroke-dasharray:none;stroke-opacity:1;fill-opacity:1" d="M291.387 342.178a75.538 75.538 0 0 1 19.814 31.469 75.241 75.241 0 0 1 3.489 18.53 75.24 75.24 0 0 1-18.532-3.487 75.538 75.538 0 0 1-31.468-19.815v78.477a75.538 75.538 0 0 1 31.468-19.815 75.24 75.24 0 0 1 18.532-3.488 75.241 75.241 0 0 1-3.489 18.531 75.538 75.538 0 0 1-19.814 31.469h78.476a75.538 75.538 0 0 1-19.814-31.469 75.241 75.241 0 0 1-3.488-18.531 75.24 75.24 0 0 1 18.53 3.488 75.538 75.538 0 0 1 31.47 19.815v-78.477a75.538 75.538 0 0 1-31.47 19.815 75.24 75.24 0 0 1-18.53 3.488 75.241 75.241 0 0 1 3.488-18.531 75.538 75.538 0 0 1 19.814-31.47h-78.476z"/><path style="fill:none;fill-rule:evenodd;stroke:#000;stroke-width:10.79621696;stroke-opacity:1" d="m653.225 19.83-3.272 416.741c-7.14 175.299-148.228 314.134-319.328 314.232-170.946-.215-312.086-139.1-319.328-314.232L8.025 19.83h322.592z"/><path style="fill:red;fill-opacity:1;stroke:#000;stroke-width:8;stroke-linejoin:round;stroke-miterlimit:4;stroke-dasharray:none;stroke-opacity:1" d="M37.807 208.17v25.656h120.705V208.17H37.807zm153.254 0v25.656h120.707V208.17H191.06zm153.253 0v25.656h120.707V208.17H344.314zm153.254 0v25.656h120.707V208.17H497.568z" transform="translate(2.584 14.432)"/><path style="fill:none;fill-rule:evenodd;stroke:#000;stroke-width:5;stroke-linecap:round;stroke-linejoin:miter;stroke-miterlimit:4;stroke-dasharray:none;stroke-opacity:1" d="M363.226 262.253h88.052M209.972 262.253h88.051M56.718 262.253h88.051M516.48 262.253h88.052"/><rect style="fill:gold;fill-opacity:1;stroke:#000;stroke-width:5;stroke-linecap:round;stroke-linejoin:round;stroke-miterlimit:4;stroke-dasharray:none;stroke-opacity:1" width="55.601" height="18.675" x="97.775" y="-610.326" rx="4.684" ry="7.731" transform="rotate(90)"/><path style="fill:#09f;fill-opacity:1;fill-rule:evenodd;stroke:#000;stroke-width:5;stroke-linecap:round;stroke-linejoin:round;stroke-miterlimit:4;stroke-dasharray:none;stroke-opacity:1" d="M462.623 98.41a10683.417 10683.417 0 0 0-382.838 13.583 39.185 39.185 0 0 0-16.977 4.244 39.15 39.15 0 0 0-11.884 9.338 39.152 39.152 0 0 0 11.884 9.338 39.187 39.187 0 0 0 16.977 4.244 10687.622 10687.622 0 0 0 382.838 13.582V98.411z"/><path style="fill:gold;fill-opacity:1;fill-rule:evenodd;stroke:#000;stroke-width:3;stroke-linecap:round;stroke-linejoin:round;stroke-miterlimit:4;stroke-dasharray:none;stroke-opacity:1" d="M50.924 125.575h349.733"/><path style="fill:none;fill-opacity:1;fill-rule:evenodd;stroke:#000;stroke-width:3;stroke-linecap:round;stroke-linejoin:round;stroke-miterlimit:4;stroke-dasharray:none;stroke-opacity:1" d="m462.623 98.41-61.966 27.165 61.966 27.164"/><rect style="fill:gold;fill-opacity:1;stroke:#000;stroke-width:4.23381329;stroke-linecap:round;stroke-linejoin:round;stroke-miterlimit:4;stroke-dasharray:none;stroke-opacity:1" width="52.536" height="17.112" x="-120.13" y="-558.406" ry="8.556" transform="rotate(112.697)"/><rect style="fill:gold;fill-opacity:1;stroke:#000;stroke-width:4.23381329;stroke-linecap:round;stroke-linejoin:round;stroke-miterlimit:4;stroke-dasharray:none;stroke-opacity:1" width="52.536" height="17.112" x="-127.765" y="-576.66" ry="8.556" transform="rotate(112.697)"/><rect style="fill:gold;fill-opacity:1;stroke:#000;stroke-width:4.23381329;stroke-linecap:round;stroke-linejoin:round;stroke-miterlimit:4;stroke-dasharray:none;stroke-opacity:1" width="52.536" height="17.112" x="-112.495" y="-540.152" ry="8.556" transform="rotate(112.697)"/><rect style="fill:gold;fill-opacity:1;stroke:#000;stroke-width:4.23381329;stroke-linecap:round;stroke-linejoin:round;stroke-miterlimit:4;stroke-dasharray:none;stroke-opacity:1" width="52.536" height="17.112" x="-104.86" y="-521.898" ry="8.556" transform="rotate(112.697)"/><rect style="fill:gold;fill-opacity:1;stroke:#000;stroke-width:4.23381329;stroke-linecap:round;stroke-linejoin:round;stroke-miterlimit:4;stroke-dasharray:none;stroke-opacity:1" width="52.536" height="17.112" x="-97.225" y="-503.644" ry="8.556" transform="rotate(112.697)"/><rect style="fill:gold;fill-opacity:1;stroke:#000;stroke-width:4.23381329;stroke-linecap:round;stroke-linejoin:round;stroke-miterlimit:4;stroke-dasharray:none;stroke-opacity:1" width="52.536" height="17.112" x="-135.4" y="-594.914" ry="8.556" transform="rotate(112.697)"/><rect style="fill:gold;fill-opacity:1;stroke:#000;stroke-width:4.23381329;stroke-linecap:round;stroke-linejoin:round;stroke-miterlimit:4;stroke-dasharray:none;stroke-opacity:1" width="52.536" height="17.112" x="-97.225" y="-503.644" ry="8.556" transform="rotate(112.697)"/><rect style="fill:gold;fill-opacity:1;stroke:#000;stroke-width:4.76059294;stroke-linecap:round;stroke-linejoin:round;stroke-miterlimit:4;stroke-dasharray:none;stroke-opacity:1" width="73.242" height="17.641" x="88.954" y="-601.957" ry="7.731" rx="4.684" transform="rotate(90)"/><path style="fill:gold;fill-opacity:1;fill-rule:evenodd;stroke:#000;stroke-width:5;stroke-linecap:round;stroke-linejoin:round;stroke-miterlimit:4;stroke-dasharray:none;stroke-opacity:1" d="M472.488 79.708c-.036-5.557-.597-11.102-2.668-16.22-1.38-3.413-3.439-6.587-6.199-9.022-2.76-2.436-6.244-4.104-9.91-4.44-4.224-.386-8.55 1.042-11.836 3.723-3.287 2.68-5.532 6.559-6.414 10.707-.762 3.58-.511 7.437 1.097 10.725.805 1.643 1.942 3.13 3.352 4.296 1.41 1.167 3.095 2.009 4.887 2.381 3.251.676 6.8-.284 9.27-2.506 2.468-2.221 3.795-5.65 3.464-8.955a31.24 31.24 0 0 1 2.97 15.705c-.68 9.278-5.45 17.725-10.61 25.465a212.43 212.43 0 0 1-10.186 14.008 212.419 212.419 0 0 1 10.185 14.006c5.16 7.74 9.932 16.187 10.612 25.465a31.24 31.24 0 0 1-2.97 15.705c.33-3.305-.997-6.734-3.466-8.955-2.468-2.222-6.018-3.18-9.27-2.504-1.791.372-3.476 1.212-4.886 2.379-1.41 1.166-2.547 2.655-3.352 4.299-1.609 3.288-1.859 7.142-1.097 10.722.882 4.149 3.127 8.026 6.414 10.707 3.286 2.681 7.612 4.112 11.836 3.725 3.666-.336 7.15-2.006 9.91-4.442 2.76-2.435 4.819-5.608 6.2-9.021 2.76-6.825 2.84-14.408 2.566-21.766a260.298 260.298 0 0 0-4.67-40.32 260.324 260.324 0 0 0 4.67-40.322c.068-1.84.113-3.693.101-5.545z"/><circle style="fill:#09f;fill-opacity:1;stroke:#000;stroke-width:5;stroke-linecap:round;stroke-linejoin:round;stroke-miterlimit:4;stroke-dasharray:none;stroke-opacity:1" cx="330.625" cy="592.763" r="119.02"/><path style="fill:gold;fill-opacity:1;stroke:#000;stroke-width:5;stroke-linecap:round;stroke-linejoin:round;stroke-miterlimit:4;stroke-dasharray:none;stroke-opacity:1" d="M328.041 452.297A126.034 126.034 0 0 0 202.008 578.33 126.034 126.034 0 0 0 328.04 704.365 126.034 126.034 0 0 0 454.074 578.33a126.034 126.034 0 0 0-126.033-126.033zm-17.242 19.85v104.347a183.226 58.738 0 0 1-89.547-10.877 107.623 107.623 0 0 1 89.547-93.47zm34.484.08a107.623 107.623 0 0 1 89.498 93.433 183.226 58.738 0 0 1-89.498 10.8V472.228zm88.147 127.836a107.623 107.623 0 0 1-105.389 85.892 107.623 107.623 0 0 1-105.28-85.87 183.226 58.738 0 0 0 105.278 10.767 183.226 58.738 0 0 0 105.39-10.79z" transform="translate(2.584 14.432)"/></g></svg>
